X:4271
L:1/8
Q:3/8=120
M:6/8
K:Bb
 Bgf fdB | gab fdB | Bgf fdB | ege c3 | Bgf fdB | gab fdB | efg fdB | cBA"^dot added" B3 :: 
 BGE cAF | dBG ecA | fdB gab | fed c3 | DBG EcA | FdB Gec | fdB gab | dec"^dot added" B3 :|

